build/system/ExportOutline.svg

<svg xmlns="http://www.w3.org/2000/svg" fill="none" viewBox="0 0 24 24" focusable="false"><path d="M0 0H24V24H0z"/><path fill="#74767B" fill-rule="evenodd" d="M16.0201 10.5104C16.1501 10.6504 16.3201 10.7204 16.5001 10.7204C16.6601 10.7204 16.8101 10.6704 16.9401 10.5504L21.0001 6.72488C21.3101 6.44488 21.3101 5.96488 21.0001 5.68488L16.9801 2.18038C16.7101 1.94038 16.3001 1.96038 16.0601 2.22038C15.8201 2.49038 15.8301 2.90038 16.1001 3.14038L18.9607 5.55488L18.9607 5.57038L15.0001 5.57038C12.9843 5.57038 11.3501 7.20454 11.3501 9.22038L11.3501 14.0001C11.3501 14.359 11.6411 14.6501 12.0001 14.6501C12.3591 14.6501 12.6501 14.359 12.6501 14.0001L12.6501 9.22038C12.6501 7.92251 13.7022 6.87038 15.0001 6.87038L18.9512 6.87038L16.0601 9.59036C15.8001 9.83036 15.7801 10.2404 16.0201 10.5104ZM10 4.65006C10 4.29108 9.70899 4.00006 9.35 4.00006L8 4.00006C6.34315 4.00006 5 5.34321 5 7.00006L5 17.0001C5 18.6569 6.34315 20.0001 8 20.0001L16 20.0001C17.6569 20.0001 19 18.6569 19 17.0001L19 12.6501C19 12.2911 18.709 12.0001 18.35 12.0001C17.991 12.0001 17.7 12.2911 17.7 12.6501L17.7 17.0001C17.7 17.9389 16.9389 18.7001 16 18.7001L8 18.7001C7.06112 18.7001 6.3 17.9389 6.3 17.0001L6.3 7.00006C6.3 6.06118 7.06112 5.30006 8 5.30006L9.35 5.30006C9.70899 5.30006 10 5.00905 10 4.65006Z"/></svg>

<svg xmlns="http://www.w3.org/2000/svg" fill="none" viewBox="0 0 24 24" focusable="false"><path fill="#74767B" fill-rule="evenodd" d="M16.5 10.72a.63.63 0 0 1-.48-.21.66.66 0 0 1 .04-.92l2.89-2.72H15c-1.3 0-2.36 1.05-2.36 2.35V14c0 .35-.29.65-.64.65-.36 0-.65-.3-.65-.65V9.22c0-2.02 1.63-3.65 3.65-3.65h3.96v-.02L16.1 3.14a.65.65 0 0 1-.04-.92c.24-.26.64-.28.92-.04L21 5.68c.31.28.31.76 0 1.04l-4.07 3.83c-.12.12-.27.17-.43.17M10 4.65c0-.36-.3-.65-.65-.65H8C6.34 4 5 5.34 5 7v10c0 1.65 1.34 3 3 3h8c1.65 0 3-1.35 3-3v-4.35c0-.36-.3-.65-.65-.65-.36 0-.65.29-.65.65V17c0 .93-.77 1.7-1.7 1.7H8c-.94 0-1.71-.77-1.71-1.7V7c0-.94.77-1.7 1.71-1.7h1.35c.35 0 .65-.3.65-.65"/></svg>
